icons/SolidJS-Light.svg

<svg width="256" height="256" viewBox="0 0 256 256" fill="none" xmlns="http://www.w3.org/2000/svg">
<rect width="256" height="256" rx="60" fill="#F4F2ED"/>
<path d="M224 76.8547C224 76.8547 160 29.7603 110.491 40.6283L106.868 41.8358C99.6226 44.2509 93.5849 47.8735 89.9623 52.7037L87.5472 56.3264L69.434 87.7226L100.83 93.7603C114.113 102.213 131.019 105.836 146.717 102.213L202.264 113.081L224 76.8547Z" fill="#76B3E1"/>
<path opacity="0.3" d="M224 76.8547C224 76.8547 160 29.7603 110.491 40.6283L106.868 41.8358C99.6226 44.2509 93.5849 47.8735 89.9623 52.7037L87.5472 56.3264L69.434 87.7226L100.83 93.7603C114.113 102.213 131.019 105.836 146.717 102.213L202.264 113.081L224 76.8547Z" fill="url(#paint0_linear_702_350)"/>
<path d="M89.9623 76.8543L85.1321 78.0619C64.6038 84.0996 58.566 103.42 69.434 120.326C81.5094 136.024 106.868 144.477 127.396 138.439L202.264 113.081C202.264 113.081 138.264 65.9864 89.9623 76.8543Z" fill="#518AC8"/>
<path opacity="0.3" d="M89.9623 76.8543L85.1321 78.0619C64.6038 84.0996 58.566 103.42 69.434 120.326C81.5094 136.024 106.868 144.477 127.396 138.439L202.264 113.081C202.264 113.081 138.264 65.9864 89.9623 76.8543Z" fill="url(#paint1_linear_702_350)"/>
<path d="M188.981 131.194C182.22 122.748 173.093 116.512 162.766 113.285C152.44 110.058 141.386 109.987 131.019 113.081L56.1509 137.232L32 179.496L167.245 202.439L191.396 158.968C196.226 150.515 195.019 140.854 188.981 131.194Z" fill="url(#paint2_linear_702_350)"/>
<path d="M164.83 173.458C158.07 165.012 148.942 158.776 138.615 155.549C128.289 152.322 117.235 152.251 106.868 155.345L32 179.496C32 179.496 96 227.798 145.509 215.722L149.132 214.515C169.66 208.477 176.906 189.156 164.83 173.458Z" fill="url(#paint3_linear_702_350)"/>
<defs>
<linearGradient id="paint0_linear_702_350" x1="60.3774" y1="38.2132" x2="210.717" y2="111.27" gradientUnits="userSpaceOnUse">
<stop offset="0.1" stop-color="#76B3E1"/>
<stop offset="0.3" stop-color="#DCF2FD"/>
<stop offset="1" stop-color="#76B3E1"/>
</linearGradient>
<linearGradient id="paint1_linear_702_350" x1="142.853" y1="73.9562" x2="116.528" y2="161.624" gradientUnits="userSpaceOnUse">
<stop stop-color="#76B3E1"/>
<stop offset="0.5" stop-color="#4377BB"/>
<stop offset="1" stop-color="#1F3B77"/>
</linearGradient>
<linearGradient id="paint2_linear_702_350" x1="49.3887" y1="112.115" x2="201.419" y2="215.481" gradientUnits="userSpaceOnUse">
<stop stop-color="#315AA9"/>
<stop offset="0.5" stop-color="#518AC8"/>
<stop offset="1" stop-color="#315AA9"/>
</linearGradient>
<linearGradient id="paint3_linear_702_350" x1="117.977" y1="124.552" x2="56.6339" y2="349.519" gradientUnits="userSpaceOnUse">
<stop stop-color="#4377BB"/>
<stop offset="0.5" stop-color="#1A336B"/>
<stop offset="1" stop-color="#1A336B"/>
</linearGradient>
</defs>
</svg>

<svg xmlns="http://www.w3.org/2000/svg" width="256" height="256" fill="none" viewBox="0 0 256 256"><rect width="256" height="256" fill="#F4F2ED" rx="60"/><path fill="#76B3E1" d="M224 76.85s-64-47.09-113.5-36.22l-3.63 1.2c-7.25 2.42-13.29 6.04-16.9 10.87l-2.42 3.63-18.12 31.4 31.4 6.03c13.28 8.45 30.19 12.08 45.89 8.45l55.54 10.87z"/><path fill="url(#a)" d="M224 76.85s-64-47.09-113.5-36.22l-3.63 1.2c-7.25 2.42-13.29 6.04-16.9 10.87l-2.42 3.63-18.12 31.4 31.4 6.03c13.28 8.45 30.19 12.08 45.89 8.45l55.54 10.87z" opacity=".3"/><path fill="#518AC8" d="m89.96 76.85-4.83 1.21c-20.53 6.04-26.56 25.36-15.7 42.27 12.08 15.7 37.44 24.15 57.97 18.1l74.86-25.35s-64-47.1-112.3-36.23"/><path fill="url(#b)" d="m89.96 76.85-4.83 1.21c-20.53 6.04-26.56 25.36-15.7 42.27 12.08 15.7 37.44 24.15 57.97 18.1l74.86-25.35s-64-47.1-112.3-36.23" opacity=".3"/><path fill="url(#c)" d="M188.98 131.2a54.3 54.3 0 0 0-57.96-18.12l-74.87 24.15L32 179.5l135.25 22.94 24.15-43.47c4.83-8.46 3.62-18.12-2.42-27.78"/><path fill="url(#d)" d="M164.83 173.46a54.3 54.3 0 0 0-57.96-18.12L32 179.5s64 48.3 113.5 36.22l3.63-1.2c20.53-6.04 27.78-25.36 15.7-41.06"/><defs><linearGradient id="a" x1="60.38" x2="210.72" y1="38.21" y2="111.27" gradientUnits="userSpaceOnUse"><stop offset=".1" stop-color="#76B3E1"/><stop offset=".3" stop-color="#DCF2FD"/><stop offset="1" stop-color="#76B3E1"/></linearGradient><linearGradient id="b" x1="142.85" x2="116.53" y1="73.96" y2="161.62" gradientUnits="userSpaceOnUse"><stop stop-color="#76B3E1"/><stop offset=".5" stop-color="#4377BB"/><stop offset="1" stop-color="#1F3B77"/></linearGradient><linearGradient id="c" x1="49.39" x2="201.42" y1="112.11" y2="215.48" gradientUnits="userSpaceOnUse"><stop stop-color="#315AA9"/><stop offset=".5" stop-color="#518AC8"/><stop offset="1" stop-color="#315AA9"/></linearGradient><linearGradient id="d" x1="117.98" x2="56.63" y1="124.55" y2="349.52" gradientUnits="userSpaceOnUse"><stop stop-color="#4377BB"/><stop offset=".5" stop-color="#1A336B"/><stop offset="1" stop-color="#1A336B"/></linearGradient></defs></svg>
